app/assets/images/006-story.svg

<svg height="512pt" viewBox="-112 0 512 512" width="512pt" xmlns="http://www.w3.org/2000/svg"><path d="m232 216c-2.128906 0-4.160156-.839844-5.65625-2.34375l-18.695312-18.695312c-3.90625-3.898438-6.03125-9.03125-6.03125-14.503907 0-5.472656 2.125-10.601562 5.992187-14.472656 6.300781-6.328125 16.726563-7.695313 24.382813-3.441406 7.625-4.238281 18.070312-2.910157 24.414062 3.464843 3.851562 3.839844 5.976562 8.976563 5.976562 14.449219 0 5.472657-2.125 10.597657-5.992187 14.472657l-18.734375 18.726562c-1.496094 1.503906-3.527344 2.34375-5.65625 2.34375zm-9.929688-40c-1.183593 0-2.292968.464844-3.132812 1.296875-.859375.855469-1.320312 1.976563-1.320312 3.167969s.460937 2.304687 1.292968 3.144531l13.089844 13.078125 13.078125-13.078125c.84375-.839844 1.304687-1.960937 1.304687-3.152344 0-1.191406-.460937-2.304687-1.292968-3.144531-1.730469-1.726562-4.632813-1.703125-6.3125-.015625l-1.160156 1.144531c-3.113282 3.078125-8.128907 3.078125-11.234376 0l-1.109374-1.097656c-.890626-.878906-2.007813-1.34375-3.203126-1.34375zm0 0"/><path d="m56 232c-2.128906 0-4.160156-.839844-5.65625-2.34375l-18.695312-18.695312c-3.90625-3.898438-6.03125-9.03125-6.03125-14.503907 0-5.472656 2.125-10.601562 5.992187-14.472656 6.300781-6.328125 16.734375-7.703125 24.382813-3.441406 7.632812-4.238281 18.078124-2.910157 24.414062 3.464843 3.851562 3.839844 5.976562 8.976563 5.976562 14.449219 0 5.472657-2.125 10.597657-5.992187 14.472657l-18.734375 18.726562c-1.496094 1.503906-3.527344 2.34375-5.65625 2.34375zm-9.929688-40c-1.183593 0-2.292968.464844-3.132812 1.296875-.859375.855469-1.320312 1.976563-1.320312 3.167969s.460937 2.304687 1.292968 3.144531l13.089844 13.078125 13.078125-13.078125c.84375-.839844 1.304687-1.960937 1.304687-3.152344 0-1.191406-.460937-2.304687-1.292968-3.144531-1.730469-1.738281-4.632813-1.703125-6.3125-.015625l-1.160156 1.144531c-3.113282 3.078125-8.128907 3.078125-11.234376 0l-1.109374-1.097656c-.890626-.878906-2.007813-1.34375-3.203126-1.34375zm0 0"/><path d="m144 184c-2.128906 0-4.160156-.839844-5.65625-2.34375l-18.695312-18.695312c-3.90625-3.898438-6.03125-9.03125-6.03125-14.503907 0-5.472656 2.125-10.601562 5.992187-14.472656 6.3125-6.328125 16.726563-7.703125 24.382813-3.441406 7.625-4.238281 18.078124-2.910157 24.414062 3.464843 3.851562 3.839844 5.976562 8.976563 5.976562 14.449219 0 5.472657-2.125 10.597657-5.992187 14.472657l-18.734375 18.726562c-1.496094 1.503906-3.527344 2.34375-5.65625 2.34375zm-9.929688-40c-1.183593 0-2.292968.464844-3.132812 1.296875-.859375.855469-1.320312 1.976563-1.320312 3.167969s.460937 2.304687 1.292968 3.144531l13.089844 13.078125 13.078125-13.078125c.84375-.839844 1.304687-1.960937 1.304687-3.152344 0-1.191406-.460937-2.304687-1.292968-3.144531-1.730469-1.726562-4.632813-1.703125-6.3125-.015625l-1.160156 1.144531c-3.113282 3.078125-8.128907 3.078125-11.234376 0l-1.109374-1.097656c-.890626-.878906-2.007813-1.34375-3.203126-1.34375zm0 0"/><path d="m280 56.015625c-4.425781 0-8-3.574219-8-8 0-17.648437-14.351562-32-32-32-4.425781 0-8-3.574219-8-8 0-4.421875 3.574219-8 8-8 26.472656 0 48 21.527344 48 48 0 4.425781-3.574219 8-8 8zm0 0"/><path d="m8 56c-4.425781 0-8-3.574219-8-8 0-26.472656 21.527344-48 48-48 4.425781 0 8 3.574219 8 8s-3.574219 8-8 8c-17.648438 0-32 14.351562-32 32 0 4.425781-3.574219 8-8 8zm0 0"/><path d="m240 16h-192c-4.425781 0-8-3.574219-8-8s3.574219-8 8-8h192c4.425781 0 8 3.574219 8 8s-3.574219 8-8 8zm0 0"/><path d="m232 512h-176c-30.871094 0-56-25.128906-56-56v-408c0-4.425781 3.574219-8 8-8s8 3.574219 8 8v408c0 22.054688 17.945312 40 40 40h176c22.054688 0 40-17.945312 40-40v-408c0-4.425781 3.574219-8 8-8s8 3.574219 8 8v408c0 30.871094-25.128906 56-56 56zm0 0"/><path d="m280 448h-272c-4.425781 0-8-3.574219-8-8s3.574219-8 8-8h272c4.425781 0 8 3.574219 8 8s-3.574219 8-8 8zm0 0"/><path d="m144 496c-13.230469 0-24-10.769531-24-24s10.769531-24 24-24 24 10.769531 24 24-10.769531 24-24 24zm0-32c-4.414062 0-8 3.585938-8 8s3.585938 8 8 8 8-3.585938 8-8-3.585938-8-8-8zm0 0"/><path d="m88 320.015625c-4.425781 0-8-3.574219-8-8v-64.03125c0-4.425781 3.574219-8 8-8s8 3.574219 8 8v64.03125c0 4.425781-3.574219 8-8 8zm0 0"/><path d="m200 320.015625c-4.425781 0-8-3.574219-8-8v-2.34375c0-4.425781 3.574219-8 8-8s8 3.574219 8 8v2.34375c0 4.425781-3.574219 8-8 8zm0 0"/><path d="m72 423.984375c-4.425781 0-8-3.578125-8-8 0-17.648437 14.351562-32 32-32 4.425781 0 8 3.574219 8 8 0 4.421875-3.574219 8-8 8-8.824219 0-16 7.175781-16 16 0 4.421875-3.574219 8-8 8zm0 0"/><path d="m120 400.03125h-24c-4.425781 0-8-3.574219-8-8 0-4.421875 3.574219-8 8-8h24c4.425781 0 8 3.578125 8 8 0 4.425781-3.574219 8-8 8zm0 0"/><path d="m72 448.015625c-4.425781 0-8-3.574219-8-8v-24.03125c0-4.425781 3.574219-8 8-8s8 3.574219 8 8v24.03125c0 4.425781-3.574219 8-8 8zm0 0"/><path d="m216 423.984375c-4.425781 0-8-3.578125-8-8 0-8.824219-7.175781-16-16-16-4.425781 0-8-3.578125-8-8 0-4.425781 3.574219-8 8-8 17.648438 0 32 14.351563 32 32 0 4.421875-3.574219 8-8 8zm0 0"/><path d="m192 400.03125h-24c-4.425781 0-8-3.574219-8-8 0-4.421875 3.574219-8 8-8h24c4.425781 0 8 3.578125 8 8 0 4.425781-3.574219 8-8 8zm0 0"/><path d="m216 448.015625c-4.425781 0-8-3.574219-8-8v-24.03125c0-4.425781 3.574219-8 8-8s8 3.574219 8 8v24.03125c0 4.425781-3.574219 8-8 8zm0 0"/><path d="m120 400.03125c-4.425781 0-8-3.574219-8-8v-29.472656c0-4.421875 3.574219-8 8-8s8 3.578125 8 8v29.472656c0 4.425781-3.574219 8-8 8zm0 0"/><path d="m168 399.984375c-4.425781 0-8-3.578125-8-8v-29.425781c0-4.421875 3.574219-8 8-8s8 3.578125 8 8v29.425781c0 4.421875-3.574219 8-8 8zm0 0"/><path d="m144 375.953125c-35.289062 0-64-28.695313-64-63.96875 0-4.425781 3.574219-8 8-8s8 3.574219 8 8c0 26.457031 21.527344 47.96875 48 47.96875s48-21.511719 48-47.96875c0-4.425781 3.574219-8 8-8s8 3.574219 8 8c0 35.273437-28.710938 63.96875-64 63.96875zm0 0"/><path d="m143.992188 415.984375c-1.519532 0-3.0625-.441406-4.433594-1.34375l-24-16c-3.679688-2.457031-4.671875-7.417969-2.214844-11.097656 2.449219-3.679688 7.410156-4.664063 11.097656-2.214844l24 16c3.679688 2.457031 4.671875 7.414063 2.214844 11.097656-1.535156 2.308594-4.082031 3.558594-6.664062 3.558594zm0 0"/><path d="m144.007812 415.984375c-2.582031 0-5.128906-1.25-6.664062-3.558594-2.457031-3.683593-1.464844-8.640625 2.214844-11.097656l24-16c3.6875-2.449219 8.648437-1.464844 11.097656 2.214844 2.457031 3.679687 1.464844 8.640625-2.214844 11.097656l-24 16c-1.371094.902344-2.914062 1.34375-4.433594 1.34375zm0 0"/><path d="m216 279.984375c-4.425781 0-8-3.578125-8-8 0-30.871094-25.128906-56-56-56-14.257812 0-26.894531 7.742187-34.992188 14.238281-3.457031 2.769532-8.480468 2.210938-11.246093-1.230468-2.769531-3.449219-2.210938-8.488282 1.230469-11.25 14.480468-11.613282 30.039062-17.757813 45.007812-17.757813 39.703125 0 72 32.296875 72 72 0 4.421875-3.574219 8-8 8zm0 0"/><path d="m216 359.984375c-4.425781 0-8-3.578125-8-8 0-30.871094-25.128906-56-56-56-4.425781 0-8-3.578125-8-8 0-4.425781 3.574219-8 8-8 39.703125 0 72 32.296875 72 72 0 4.421875-3.574219 8-8 8zm0 0"/><path d="m88 295.984375c-4.425781 0-8-3.578125-8-8 0-4.425781 3.574219-8 8-8 8.824219 0 16-7.175781 16-16 0-4.425781 3.574219-8 8-8s8 3.574219 8 8c0 17.648437-14.351562 32-32 32zm0 0"/><path d="m88 255.984375c-4.425781 0-8-3.578125-8-8 0-17.648437 14.351562-32 32-32 4.425781 0 8 3.574219 8 8 0 4.421875-3.574219 8-8 8-8.824219 0-16 7.175781-16 16 0 4.421875-3.574219 8-8 8zm0 0"/><path d="m136 295.984375c-17.648438 0-32-14.351563-32-32 0-4.425781 3.574219-8 8-8s8 3.574219 8 8c0 8.824219 7.175781 16 16 16 4.425781 0 8 3.574219 8 8 0 4.421875-3.574219 8-8 8zm0 0"/><path d="m112 271.984375c-4.425781 0-8-3.578125-8-8v-40c0-4.425781 3.574219-8 8-8s8 3.574219 8 8v40c0 4.421875-3.574219 8-8 8zm0 0"/><path d="m216 359.984375c-4.425781 0-8-3.578125-8-8v-80c0-4.425781 3.574219-8 8-8s8 3.574219 8 8v80c0 4.421875-3.574219 8-8 8zm0 0"/><path d="m152 295.984375h-16c-4.425781 0-8-3.578125-8-8 0-4.425781 3.574219-8 8-8h16c4.425781 0 8 3.574219 8 8 0 4.421875-3.574219 8-8 8zm0 0"/><path d="m64 88c-17.648438 0-32-14.351562-32-32s14.351562-32 32-32 32 14.351562 32 32-14.351562 32-32 32zm0-48c-8.824219 0-16 7.175781-16 16s7.175781 16 16 16 16-7.175781 16-16-7.175781-16-16-16zm0 0"/><path d="m144 88c-17.648438 0-32-14.351562-32-32s14.351562-32 32-32 32 14.351562 32 32-14.351562 32-32 32zm0-48c-8.824219 0-16 7.175781-16 16s7.175781 16 16 16 16-7.175781 16-16-7.175781-16-16-16zm0 0"/><path d="m224 88c-17.648438 0-32-14.351562-32-32s14.351562-32 32-32 32 14.351562 32 32-14.351562 32-32 32zm0-48c-8.824219 0-16 7.175781-16 16s7.175781 16 16 16 16-7.175781 16-16-7.175781-16-16-16zm0 0"/><path d="m280 112h-272c-4.425781 0-8-3.574219-8-8s3.574219-8 8-8h272c4.425781 0 8 3.574219 8 8s-3.574219 8-8 8zm0 0"/></svg>

<svg id="_006-story" data-name="006-story" xmlns="http://www.w3.org/2000/svg" viewBox="0 0 288 512">
  <defs>
    <style>
      .cls-1 {
        fill: #486ef3;
      }
    </style>
  </defs>
  <path id="Tracé_1" data-name="Tracé 1" class="cls-1" d="M232,216a7.964,7.964,0,0,1-5.656-2.344l-18.7-18.7a20.464,20.464,0,0,1-.039-28.977,20.947,20.947,0,0,1,24.383-3.441,20.967,20.967,0,0,1,24.414,3.465,20.464,20.464,0,0,1-.016,28.922l-18.734,18.727A7.964,7.964,0,0,1,232,216Zm-9.93-40a4.466,4.466,0,0,0-3.16,7.609L232,196.688l13.078-13.078a4.465,4.465,0,0,0,.012-6.3,4.531,4.531,0,0,0-6.312-.016l-1.16,1.145a7.988,7.988,0,0,1-11.234,0l-1.109-1.1A4.506,4.506,0,0,0,222.07,176Zm0,0"/>
  <path id="Tracé_2" data-name="Tracé 2" class="cls-1" d="M56,232a7.964,7.964,0,0,1-5.656-2.344l-18.7-18.7a20.464,20.464,0,0,1-.039-28.977,20.937,20.937,0,0,1,24.383-3.441,20.964,20.964,0,0,1,24.414,3.465,20.464,20.464,0,0,1-.016,28.922L61.656,229.656A7.964,7.964,0,0,1,56,232Zm-9.93-40a4.466,4.466,0,0,0-3.16,7.609L56,212.688l13.078-13.078a4.465,4.465,0,0,0,.012-6.3,4.52,4.52,0,0,0-6.312-.016l-1.16,1.145a7.988,7.988,0,0,1-11.234,0l-1.109-1.1A4.506,4.506,0,0,0,46.07,192Zm0,0"/>
  <path id="Tracé_3" data-name="Tracé 3" class="cls-1" d="M144,184a7.964,7.964,0,0,1-5.656-2.344l-18.7-18.7a20.464,20.464,0,0,1-.039-28.977,20.937,20.937,0,0,1,24.383-3.441,20.965,20.965,0,0,1,24.414,3.465,20.464,20.464,0,0,1-.016,28.922l-18.734,18.727A7.964,7.964,0,0,1,144,184Zm-9.93-40a4.466,4.466,0,0,0-3.16,7.609L144,164.688l13.078-13.078a4.465,4.465,0,0,0,.012-6.3,4.531,4.531,0,0,0-6.312-.016l-1.16,1.145a7.988,7.988,0,0,1-11.234,0l-1.109-1.1A4.506,4.506,0,0,0,134.07,144Zm0,0"/>
  <path id="Tracé_4" data-name="Tracé 4" class="cls-1" d="M280,56.016a7.99,7.99,0,0,1-8-8,32.032,32.032,0,0,0-32-32,8,8,0,0,1,0-16,48.047,48.047,0,0,1,48,48A7.99,7.99,0,0,1,280,56.016Zm0,0"/>
  <path id="Tracé_5" data-name="Tracé 5" class="cls-1" d="M8,56a7.99,7.99,0,0,1-8-8A48.047,48.047,0,0,1,48,0a8,8,0,0,1,0,16A32.032,32.032,0,0,0,16,48,7.99,7.99,0,0,1,8,56Zm0,0"/>
  <path id="Tracé_6" data-name="Tracé 6" class="cls-1" d="M240,16H48A8,8,0,0,1,48,0H240a8,8,0,0,1,0,16Zm0,0"/>
  <path id="Tracé_7" data-name="Tracé 7" class="cls-1" d="M232,512H56A56.073,56.073,0,0,1,0,456V48a8,8,0,0,1,16,0V456a40.047,40.047,0,0,0,40,40H232a40.047,40.047,0,0,0,40-40V48a8,8,0,0,1,16,0V456A56.073,56.073,0,0,1,232,512Zm0,0"/>
  <path id="Tracé_8" data-name="Tracé 8" class="cls-1" d="M280,448H8a8,8,0,0,1,0-16H280a8,8,0,0,1,0,16Zm0,0"/>
  <path id="Tracé_9" data-name="Tracé 9" class="cls-1" d="M144,496a24,24,0,1,1,24-24A24.031,24.031,0,0,1,144,496Zm0-32a8,8,0,1,0,8,8A8.005,8.005,0,0,0,144,464Zm0,0"/>
  <path id="Tracé_10" data-name="Tracé 10" class="cls-1" d="M88,320.016a7.99,7.99,0,0,1-8-8V247.984a8,8,0,0,1,16,0v64.031A7.99,7.99,0,0,1,88,320.016Zm0,0"/>
  <path id="Tracé_11" data-name="Tracé 11" class="cls-1" d="M200,320.016a7.99,7.99,0,0,1-8-8v-2.344a8,8,0,0,1,16,0v2.344A7.99,7.99,0,0,1,200,320.016Zm0,0"/>
  <path id="Tracé_12" data-name="Tracé 12" class="cls-1" d="M72,423.984a7.993,7.993,0,0,1-8-8,32.032,32.032,0,0,1,32-32,8,8,0,0,1,0,16,16.016,16.016,0,0,0-16,16A7.993,7.993,0,0,1,72,423.984Zm0,0"/>
  <path id="Tracé_13" data-name="Tracé 13" class="cls-1" d="M120,400.031H96a8,8,0,0,1,0-16h24a8,8,0,0,1,0,16Zm0,0"/>
  <path id="Tracé_14" data-name="Tracé 14" class="cls-1" d="M72,448.016a7.99,7.99,0,0,1-8-8V415.984a8,8,0,0,1,16,0v24.031A7.99,7.99,0,0,1,72,448.016Zm0,0"/>
  <path id="Tracé_15" data-name="Tracé 15" class="cls-1" d="M216,423.984a7.993,7.993,0,0,1-8-8,16.016,16.016,0,0,0-16-16,8,8,0,0,1,0-16,32.032,32.032,0,0,1,32,32A7.993,7.993,0,0,1,216,423.984Zm0,0"/>
  <path id="Tracé_16" data-name="Tracé 16" class="cls-1" d="M192,400.031H168a8,8,0,0,1,0-16h24a8,8,0,0,1,0,16Zm0,0"/>
  <path id="Tracé_17" data-name="Tracé 17" class="cls-1" d="M216,448.016a7.99,7.99,0,0,1-8-8V415.984a8,8,0,0,1,16,0v24.031A7.99,7.99,0,0,1,216,448.016Zm0,0"/>
  <path id="Tracé_18" data-name="Tracé 18" class="cls-1" d="M120,400.031a7.99,7.99,0,0,1-8-8V362.559a8,8,0,0,1,16,0v29.473A7.99,7.99,0,0,1,120,400.031Zm0,0"/>
  <path id="Tracé_19" data-name="Tracé 19" class="cls-1" d="M168,399.984a7.993,7.993,0,0,1-8-8V362.559a8,8,0,0,1,16,0v29.426A7.993,7.993,0,0,1,168,399.984Zm0,0"/>
  <path id="Tracé_20" data-name="Tracé 20" class="cls-1" d="M144,375.953a64.057,64.057,0,0,1-64-63.969,8,8,0,0,1,16,0,48,48,0,0,0,96,0,8,8,0,0,1,16,0A64.057,64.057,0,0,1,144,375.953Zm0,0"/>
  <path id="Tracé_21" data-name="Tracé 21" class="cls-1" d="M143.992,415.984a8.058,8.058,0,0,1-4.434-1.344l-24-16a8,8,0,0,1,8.883-13.312l24,16a8,8,0,0,1-4.449,14.656Zm0,0"/>
  <path id="Tracé_22" data-name="Tracé 22" class="cls-1" d="M144.008,415.984a8,8,0,0,1-4.449-14.656l24-16a8,8,0,1,1,8.883,13.313l-24,16A8.058,8.058,0,0,1,144.008,415.984Zm0,0"/>
  <path id="Tracé_23" data-name="Tracé 23" class="cls-1" d="M216,279.984a7.993,7.993,0,0,1-8-8,56.073,56.073,0,0,0-56-56c-14.258,0-26.895,7.742-34.992,14.238a8,8,0,0,1-10.016-12.48c14.48-11.613,30.039-17.758,45.008-17.758a72.079,72.079,0,0,1,72,72A7.993,7.993,0,0,1,216,279.984Zm0,0"/>
  <path id="Tracé_24" data-name="Tracé 24" class="cls-1" d="M216,359.984a7.993,7.993,0,0,1-8-8,56.073,56.073,0,0,0-56-56,8,8,0,0,1,0-16,72.079,72.079,0,0,1,72,72A7.993,7.993,0,0,1,216,359.984Zm0,0"/>
  <path id="Tracé_25" data-name="Tracé 25" class="cls-1" d="M88,295.984a8,8,0,0,1,0-16,16.016,16.016,0,0,0,16-16,8,8,0,0,1,16,0A32.032,32.032,0,0,1,88,295.984Zm0,0"/>
  <path id="Tracé_26" data-name="Tracé 26" class="cls-1" d="M88,255.984a7.993,7.993,0,0,1-8-8,32.032,32.032,0,0,1,32-32,8,8,0,0,1,0,16,16.016,16.016,0,0,0-16,16A7.993,7.993,0,0,1,88,255.984Zm0,0"/>
  <path id="Tracé_27" data-name="Tracé 27" class="cls-1" d="M136,295.984a32.032,32.032,0,0,1-32-32,8,8,0,0,1,16,0,16.016,16.016,0,0,0,16,16,8,8,0,0,1,0,16Zm0,0"/>
  <path id="Tracé_28" data-name="Tracé 28" class="cls-1" d="M112,271.984a7.993,7.993,0,0,1-8-8v-40a8,8,0,0,1,16,0v40A7.993,7.993,0,0,1,112,271.984Zm0,0"/>
  <path id="Tracé_29" data-name="Tracé 29" class="cls-1" d="M216,359.984a7.993,7.993,0,0,1-8-8v-80a8,8,0,0,1,16,0v80A7.993,7.993,0,0,1,216,359.984Zm0,0"/>
  <path id="Tracé_30" data-name="Tracé 30" class="cls-1" d="M152,295.984H136a8,8,0,0,1,0-16h16a8,8,0,0,1,0,16Zm0,0"/>
  <path id="Tracé_31" data-name="Tracé 31" class="cls-1" d="M64,88A32,32,0,1,1,96,56,32.032,32.032,0,0,1,64,88Zm0-48A16,16,0,1,0,80,56,16.016,16.016,0,0,0,64,40Zm0,0"/>
  <path id="Tracé_32" data-name="Tracé 32" class="cls-1" d="M144,88a32,32,0,1,1,32-32A32.032,32.032,0,0,1,144,88Zm0-48a16,16,0,1,0,16,16A16.016,16.016,0,0,0,144,40Zm0,0"/>
  <path id="Tracé_33" data-name="Tracé 33" class="cls-1" d="M224,88a32,32,0,1,1,32-32A32.032,32.032,0,0,1,224,88Zm0-48a16,16,0,1,0,16,16A16.016,16.016,0,0,0,224,40Zm0,0"/>
  <path id="Tracé_34" data-name="Tracé 34" class="cls-1" d="M280,112H8A8,8,0,0,1,8,96H280a8,8,0,0,1,0,16Zm0,0"/>
</svg>
